; generated by Slic3r 1.3.1-dev on 2018-07-11 at 11:05:46

; external perimeters extrusion width = 0.55mm (4.37mm^3/s)
; perimeters extrusion width = 0.70mm (11.44mm^3/s)
; infill extrusion width = 0.62mm (13.45mm^3/s)
; solid infill extrusion width = 0.70mm (3.81mm^3/s)
; top infill extrusion width = 0.70mm (2.86mm^3/s)
; support material extrusion width = 0.55mm (8.74mm^3/s)

M107
M104 S200 ; set temperature
G28 ; home all axes
G1 Z5 F5000 ; lift nozzle

; Filament gcode

M109 S200 ; set temperature and wait for it to be reached
G21 ; set units to millimeters
G90 ; use absolute coordinates
M82 ; use absolute distances for extrusion
G92 E0
G92 E0
G1 Z0.350 F7800.000
G1 E-2.00000 F2400.00000
G92 E0
G1 X88.754 Y86.695 F7800.000
G1 E2.00000 F2400.00000
G1 F1800
G1 X93.425 Y82.696 E2.19026
G1 X94.233 Y82.099 E2.22135
G1 X95.622 Y81.390 E2.26961
G1 X95.832 Y81.312 E2.27653
G1 X97.349 Y80.948 E2.32479
G1 X98.351 Y80.875 E2.35588
G1 X100.050 Y80.875 E2.40845
G1 X101.765 Y81.101 E2.46196
G1 X102.240 Y81.228 E2.47718
G1 X104.319 Y82.196 E2.54814
G1 X105.210 Y82.943 E2.58410
G1 X105.557 Y83.290 E2.59931
G1 X106.532 Y84.530 E2.64811
G1 X113.532 Y96.030 E3.06467
G1 X114.272 Y97.760 E3.12289
G1 X114.399 Y98.235 E3.13810
G1 X114.625 Y99.950 E3.19162
G1 X114.625 Y103.000 E3.28599
G1 X114.420 Y104.634 E3.33693
G1 X113.140 Y109.665 E3.49755
G1 X112.198 Y111.756 E3.56851
G1 X111.275 Y112.842 E3.61262
G1 X106.830 Y117.050 E3.80203
G1 X105.994 Y117.727 E3.83531
G1 X104.533 Y118.536 E3.88697
G1 X104.311 Y118.624 E3.89438
G1 X102.694 Y119.042 E3.94604
G1 X101.622 Y119.125 E3.97932
G1 X99.950 Y119.125 E4.03104
G1 X98.235 Y118.899 E4.08456
G1 X97.760 Y118.772 E4.09977
G1 X95.681 Y117.804 E4.17073
G1 X94.790 Y117.057 E4.20669
G1 X94.443 Y116.709 E4.22191
G1 X93.468 Y115.470 E4.27070
G1 X86.468 Y103.970 E4.68726
G1 X85.728 Y102.240 E4.74548
G1 X85.601 Y101.765 E4.76070
G1 X85.375 Y100.050 E4.81421
G1 X85.375 Y97.000 E4.90858
G1 X85.506 Y95.692 E4.94927
G1 X86.568 Y90.419 E5.11569
G1 X87.403 Y88.283 E5.18666
G1 X88.705 Y86.752 E5.24884
G1 E3.24884 F2400.00000
G92 E0
G1 X104.319 Y106.004 F7800.000
G1 E2.00000 F2400.00000
G1 F1800
G1 X106.225 Y108.017 E2.08580
G1 X102.050 Y111.970 E2.26370
G1 X101.911 Y112.073 E2.26904
G1 X101.771 Y112.128 E2.27370
G1 X101.599 Y112.150 E2.27905
G1 X99.996 Y112.150 E2.32866
G1 X99.656 Y112.059 E2.33955
G1 X99.441 Y111.844 E2.34896
G1 X99.350 Y111.504 E2.35985
G1 X99.350 Y103.542 E2.60620
G1 X98.969 Y103.411 E2.61868
G1 X97.563 Y102.629 E2.66845
G1 X96.897 Y101.928 E2.69838
G1 X96.394 Y101.062 E2.72935
G1 X96.214 Y100.650 E2.74326
G1 X92.996 Y100.650 E2.84282
G1 X92.656 Y100.559 E2.85370
G1 X92.441 Y100.344 E2.86312
G1 X92.350 Y100.004 E2.87400
G1 X92.350 Y97.161 E2.96196
G1 X95.711 Y94.283 E3.09888
G1 X93.556 Y91.765 E3.20144
G1 X97.945 Y88.008 E3.38022
G1 X98.079 Y87.918 E3.38522
G1 X98.211 Y87.869 E3.38957
G1 X98.372 Y87.850 E3.39457
G1 X100.004 Y87.850 E3.44507
G1 X100.344 Y87.941 E3.45596
G1 X100.559 Y88.156 E3.46537
G1 X100.650 Y88.496 E3.47626
G1 X100.650 Y95.221 E3.68433
G1 X100.998 Y95.286 E3.69530
G1 X102.667 Y95.991 E3.75135
G1 X103.867 Y97.295 E3.80619
G1 X104.527 Y99.350 E3.87296
G1 X107.004 Y99.350 E3.94961
G1 X107.344 Y99.441 E3.96050
G1 X107.559 Y99.656 E3.96991
G1 X107.650 Y99.996 E3.98080
G1 X107.650 Y102.849 E4.06908
G1 X104.373 Y105.952 E4.20872
G1 X103.992 Y106.383 F7800.000
G1 X103.435 Y105.980 F7800.000
G1 F1800
G1 X105.342 Y107.993 E4.29452
G1 X101.612 Y111.525 E4.45346
G1 X99.975 Y111.525 E4.50410
G1 X99.975 Y103.097 E4.76489
G1 X99.224 Y102.838 E4.78946
G1 X97.950 Y102.129 E4.83457
G1 X97.400 Y101.550 E4.85927
G1 X96.952 Y100.778 E4.88689
G1 X96.622 Y100.025 E4.91234
G1 X92.975 Y100.025 E5.02518
G1 X92.975 Y97.449 E5.10489
G1 X96.592 Y94.352 E5.25224
G1 X94.437 Y91.834 E5.35480
G1 X98.360 Y88.475 E5.51461
G1 X100.025 Y88.475 E5.56612
G1 X100.025 Y95.740 E5.79091
G1 X100.817 Y95.888 E5.81585
G1 X102.299 Y96.514 E5.86561
G1 X103.314 Y97.617 E5.91200
G1 X104.071 Y99.975 E5.98862
G1 X107.025 Y99.975 E6.08003
G1 X107.025 Y102.581 E6.16065
G1 X103.490 Y105.928 E6.31130
G1 X102.552 Y105.956 F7800.000
G1 F1800
G1 X104.458 Y107.969 E6.39710
G1 X101.363 Y110.900 E6.52901
G1 X100.600 Y110.900 E6.55261
G1 X100.600 Y102.651 E6.80785
G1 X99.480 Y102.265 E6.84450
G1 X98.337 Y101.630 E6.88495
G1 X97.904 Y101.173 E6.90442
G1 X97.510 Y100.495 E6.92868
G1 X97.030 Y99.400 E6.96568
G1 X93.600 Y99.400 E7.07181
G1 X93.600 Y97.736 E7.12329
G1 X97.474 Y94.420 E7.28108
G1 X95.318 Y91.902 E7.38364
G1 X98.591 Y89.100 E7.51696
G1 X99.400 Y89.100 E7.54199
G1 X99.400 Y96.259 E7.76352
G1 X100.637 Y96.490 E7.80243
G1 X101.931 Y97.036 E7.84590
G1 X102.761 Y97.939 E7.88385
G1 X103.615 Y100.600 E7.97031
G1 X106.400 Y100.600 E8.05648
G1 X106.400 Y102.312 E8.10945
G1 X102.606 Y105.904 E8.27111
G1 E6.27111 F2400.00000
G92 E0
G1 X103.329 Y108.191 F7800.000
G1 E2.00000 F2400.00000
G1 F1800
G1 X103.818 Y107.702 E2.02173
G1 X103.381 Y107.241 E2.04171
G1 X100.982 Y109.640 E2.14841
G1 X100.982 Y108.742 E2.17665
G1 X102.944 Y106.779 E2.26393
G1 X102.508 Y106.318 E2.28390
G1 X100.982 Y107.844 E2.35176
G1 X100.982 Y106.946 E2.38000
G1 X102.071 Y105.857 E2.42843
G1 X101.911 Y105.688 E2.43572
G1 X106.018 Y101.800 E2.61357
G1 X106.018 Y101.011 E2.63837
G1 X100.982 Y106.048 E2.86234
G1 X100.982 Y105.150 E2.89058
G1 X105.150 Y100.982 E3.07593
G1 X104.252 Y100.982 E3.10417
G1 X100.982 Y104.252 E3.24959
G1 X100.982 Y103.354 E3.27783
G1 X103.391 Y100.944 E3.38496
G1 X103.172 Y100.265 E3.40741
G1 X100.982 Y102.455 E3.50484
G1 X100.319 Y102.220 E3.52695
G1 X102.954 Y99.585 E3.64415
G1 X102.736 Y98.905 E3.66660
G1 X99.651 Y101.990 E3.80377
G1 X99.493 Y101.935 E3.80904
G1 X99.052 Y101.690 E3.82488
G1 X102.518 Y98.225 E3.97897
G1 X102.451 Y98.018 E3.98582
G1 X102.152 Y97.693 E3.99971
G1 X98.477 Y101.368 E4.16314
G1 X98.165 Y101.039 E4.17740
G1 X98.070 Y100.876 E4.18331
G1 X101.682 Y97.264 E4.34395
G1 X101.051 Y96.997 E4.36550
G1 X97.755 Y100.294 E4.51209
G1 X97.481 Y99.670 E4.53352
G1 X100.364 Y96.786 E4.66175
G1 X99.607 Y96.645 E4.68596
G1 X97.207 Y99.045 E4.79270
G1 X97.195 Y99.018 E4.79363
G1 X96.336 Y99.018 E4.82064
G1 X99.018 Y96.336 E4.93993
G1 X99.018 Y95.438 E4.96817
G1 X95.438 Y99.018 E5.12740
G1 X94.540 Y99.018 E5.15564
G1 X99.018 Y94.540 E5.35480
G1 X99.018 Y93.642 E5.38304
G1 X98.027 Y94.633 E5.42711
G1 X97.613 Y94.149 E5.44714
G1 X99.018 Y92.744 E5.50964
G1 X99.018 Y91.845 E5.53788
G1 X97.199 Y93.665 E5.61879
G1 X96.785 Y93.181 E5.63882
G1 X99.018 Y90.947 E5.73816
G1 X99.018 Y90.049 E5.76640
G1 X96.370 Y92.697 E5.88416
G1 X95.956 Y92.213 E5.90418
G1 X96.443 Y91.727 E5.92584
G1 E3.92584 F2400.00000
G92 E0
G1 X98.513 Y94.147 F7800.000
G1 E2.00000 F2400.00000
G1 F1800
G1 X98.598 Y94.245 E2.00408
G1 X97.326 Y95.334 E2.05670
G1 X93.982 Y98.678 E2.20544
G1 Z0.350 F7800.000
G1 Z0.498 F7800.000
G1 X104.425 Y106.007 F7800.000
G1 F1800
G1 X106.331 Y108.020 E2.23561
G1 X102.102 Y112.025 E2.29896
G1 X101.914 Y112.152 E2.30143
G1 X101.790 Y112.201 E2.30289
G1 X101.604 Y112.225 E2.30492
G1 X99.986 Y112.225 E2.32253
G1 X99.617 Y112.126 E2.32668
G1 X99.374 Y111.883 E2.33043
G1 X99.275 Y111.514 E2.33458
G1 X99.275 Y103.816 E2.41832
G1 X98.856 Y103.699 E2.42305
G1 X97.365 Y102.870 E2.44161
G1 X96.647 Y102.114 E2.45295
G1 X96.114 Y101.196 E2.46450
G1 X95.938 Y100.725 E2.46997
G1 X92.986 Y100.725 E2.50208
G1 X92.617 Y100.626 E2.50624
G1 X92.374 Y100.383 E2.50998
G1 X92.275 Y100.014 E2.51414
G1 X92.275 Y97.127 E2.54555
G1 X95.606 Y94.275 E2.59324
G1 X93.450 Y91.757 E2.62930
G1 X97.900 Y87.948 E2.69302
G1 X98.045 Y87.851 E2.69493
G1 X98.194 Y87.796 E2.69665
G1 X98.367 Y87.775 E2.69855
G1 X100.014 Y87.775 E2.71646
G1 X100.383 Y87.874 E2.72062
G1 X100.626 Y88.117 E2.72436
G1 X100.725 Y88.486 E2.72852
G1 X100.725 Y94.892 E2.79820
G1 X101.069 Y94.955 E2.80201
G1 X102.863 Y95.713 E2.82319
G1 X104.161 Y97.124 E2.84405
G1 X104.767 Y98.977 E2.86525
G1 X104.800 Y99.275 E2.86852
G1 X107.014 Y99.275 E2.89260
G1 X107.383 Y99.374 E2.89676
G1 X107.626 Y99.617 E2.90050
G1 X107.725 Y99.986 E2.90466
G1 X107.725 Y102.882 E2.93616
G1 X104.479 Y105.955 E2.98479
G1 X104.099 Y106.386 F7800.000
G1 X103.586 Y105.984 F7800.000
G1 F3600
G1 X105.493 Y107.997 E3.02369
G1 X101.729 Y111.561 E3.09639
G1 X101.638 Y111.623 E3.09794
G1 X100.064 Y111.632 E3.12001
G1 X99.910 Y111.590 E3.12226
G1 X99.868 Y111.436 E3.12451
G1 X99.868 Y103.366 E3.23770
G1 X99.084 Y103.147 E3.24913
G1 X97.733 Y102.396 E3.27081
G1 X97.125 Y101.756 E3.28318
G1 X96.652 Y100.941 E3.29640
G1 X96.349 Y100.132 E3.30853
G1 X93.064 Y100.132 E3.35461
G1 X92.910 Y100.090 E3.35686
G1 X92.868 Y99.936 E3.35910
G1 X92.868 Y97.400 E3.39468
G1 X96.442 Y94.340 E3.46067
G1 X94.286 Y91.822 E3.50717
G1 X98.324 Y88.377 E3.58163
G1 X99.936 Y88.368 E3.60423
G1 X100.090 Y88.410 E3.60648
G1 X100.132 Y88.564 E3.60872
G1 X100.132 Y95.386 E3.70442
G1 X100.898 Y95.527 E3.71535
G1 X102.513 Y96.209 E3.73994
G1 X103.637 Y97.431 E3.76323
G1 X104.184 Y99.103 E3.78791
G1 X104.269 Y99.868 E3.79871
G1 X106.936 Y99.868 E3.83612
G1 X107.090 Y99.910 E3.83836
G1 X107.132 Y100.064 E3.84061
G1 X107.132 Y102.626 E3.87655
G1 X103.640 Y105.932 E3.94400
G1 X102.641 Y105.958 F7800.000
G1 F3600
G1 X104.548 Y107.972 E3.98290
G1 X101.388 Y110.964 E4.04394
G1 X100.536 Y110.964 E4.05589
G1 X100.536 Y102.859 E4.16958
G1 X99.339 Y102.525 E4.18701
G1 X98.147 Y101.862 E4.20615
G1 X97.664 Y101.353 E4.21599
G1 X97.259 Y100.655 E4.22732
G1 X96.812 Y99.464 E4.24516
G1 X93.536 Y99.464 E4.29112
G1 X93.536 Y97.707 E4.31576
G1 X97.384 Y94.413 E4.38681
G1 X95.228 Y91.895 E4.43331
G1 X98.568 Y89.036 E4.49498
G1 X99.464 Y89.036 E4.50754
G1 X99.464 Y95.943 E4.60442
G1 X100.705 Y96.171 E4.62213
G1 X102.120 Y96.768 E4.64367
G1 X103.047 Y97.777 E4.66289
G1 X103.528 Y99.245 E4.68456
G1 X103.671 Y100.536 E4.70279
G1 X106.464 Y100.536 E4.74196
G1 X106.464 Y102.339 E4.76725
G1 X102.696 Y105.906 E4.84004
G1 X103.415 Y104.812 F7800.000
G1 F1200
G1 X100.945 Y102.342 E4.88941
G1 X100.945 Y103.294 E4.90286
G1 X102.926 Y105.275 E4.94246
G1 X102.437 Y105.738 E4.95197
G1 X100.945 Y104.246 E4.98180
G1 X100.945 Y105.198 E4.99525
G1 X102.272 Y106.525 E5.02178
G1 X103.863 Y108.206 E5.05449
G1 X103.420 Y108.625 E5.06312
G1 X100.945 Y106.150 E5.11260
G1 X100.945 Y107.102 E5.12605
G1 X102.931 Y109.088 E5.16576
G1 X102.442 Y109.551 E5.17528
G1 X100.945 Y108.054 E5.20521
G1 X100.945 Y109.005 E5.21866
G1 X101.953 Y110.014 E5.23883
G1 X101.464 Y110.477 E5.24834
G1 X100.945 Y109.957 E5.25873
G1 X105.371 Y102.960 F7800.000
G1 F1200
G1 X105.860 Y102.497 E5.26825
G1 X104.307 Y100.945 E5.29927
G1 X105.259 Y100.945 E5.31273
G1 X106.055 Y101.741 E5.32864
G1 X103.265 Y100.854 F7800.000
G1 F1200
G1 X103.146 Y99.783 E5.34387
G1 X99.842 Y96.479 E5.40991
G1 X100.253 Y96.555 E5.41581
G1 X101.320 Y97.006 E5.43219
G1 X102.727 Y98.412 E5.46030
G1 X93.945 Y98.198 F7800.000
G1 F1200
G1 X94.802 Y99.055 E5.47745
G1 X95.754 Y99.055 E5.49090
G1 X94.219 Y97.520 E5.52159
G1 X94.732 Y97.081 E5.53113
G1 X96.187 Y98.536 E5.56021
G1 X97.016 Y98.536 E5.57193
G1 X97.512 Y99.861 E5.59193
G1 X99.761 Y102.110 E5.63687
G1 X99.855 Y102.162 E5.63840
G1 X101.119 Y102.516 E5.65694
G1 X95.245 Y96.642 E5.77434
G1 X95.758 Y96.203 E5.78389
G1 X103.904 Y104.349 E5.94670
G1 X104.393 Y103.886 E5.95622
G1 X96.270 Y95.764 E6.11855
G1 X96.783 Y95.325 E6.12809
G1 X104.882 Y103.423 E6.28995
G1 X105.371 Y102.960 E6.29947
G1 X103.875 Y101.464 E6.32936
G1 X103.333 Y101.464 E6.33702
G1 X103.265 Y100.854 E6.34569
G1 X99.196 Y96.785 E6.42703
G1 X99.055 Y96.759 E6.42904
G1 X99.055 Y96.645 E6.43066
G1 X97.296 Y94.885 E6.46582
G1 X97.809 Y94.446 E6.47536
G1 X99.055 Y95.693 E6.50027
G1 X99.055 Y94.741 E6.51373
G1 X95.971 Y91.656 E6.57537
G1 X96.484 Y91.217 E6.58491
G1 X99.055 Y93.789 E6.63630
G1 X99.055 Y92.837 E6.64976
G1 X96.997 Y90.778 E6.69090
G1 X97.510 Y90.339 E6.70044
G1 X99.055 Y91.885 E6.73133
G1 X99.055 Y90.933 E6.74479
G1 X98.023 Y89.900 E6.76543
G1 X98.536 Y89.461 E6.77497
G1 X99.055 Y89.981 E6.78536
G1 Z0.659 F7800.000
G1 X104.425 Y106.007 F7800.000
G1 F1800
G1 X106.331 Y108.020 E6.81785
G1 X102.098 Y112.028 E6.88614
G1 X101.947 Y112.139 E6.88834
G1 X101.790 Y112.201 E6.89032
G1 X101.604 Y112.225 E6.89252
G1 X99.986 Y112.225 E6.91147
G1 X99.617 Y112.126 E6.91595
G1 X99.374 Y111.883 E6.91998
G1 X99.275 Y111.514 E6.92446
G1 X99.275 Y103.947 E7.01311
G1 X98.831 Y103.798 E7.01859
G1 X97.301 Y102.947 E7.03911
G1 X96.567 Y102.174 E7.05159
G1 X96.020 Y101.231 E7.06436
G1 X95.809 Y100.725 E7.07079
G1 X92.986 Y100.725 E7.10387
G1 X92.617 Y100.626 E7.10834
G1 X92.374 Y100.383 E7.11238
G1 X92.275 Y100.014 E7.11685
G1 X92.275 Y97.127 E7.15068
G1 X95.606 Y94.275 E7.20205
G1 X93.450 Y91.757 E7.24088
G1 X97.900 Y87.948 E7.30952
G1 X98.045 Y87.851 E7.31156
G1 X98.194 Y87.796 E7.31342
G1 X98.367 Y87.775 E7.31547
G1 X100.014 Y87.775 E7.33476
G1 X100.383 Y87.874 E7.33924
G1 X100.626 Y88.117 E7.34327
G1 X100.725 Y88.486 E7.34774
G1 X100.725 Y94.802 E7.42175
G1 X101.088 Y94.864 E7.42606
G1 X102.916 Y95.637 E7.44932
G1 X104.241 Y97.077 E7.47225
G1 X104.859 Y98.965 E7.49552
G1 X104.888 Y99.275 E7.49917
G1 X107.014 Y99.275 E7.52408
G1 X107.383 Y99.374 E7.52855
G1 X107.626 Y99.617 E7.53259
G1 X107.725 Y99.986 E7.53706
G1 X107.725 Y102.882 E7.57099
G1 X104.479 Y105.955 E7.62336
G1 X104.099 Y106.386 F7800.000
G1 X103.590 Y105.984 F7800.000
G1 F3600
G1 X105.496 Y107.998 E7.66531
G1 X101.651 Y111.624 E7.74525
G1 X100.064 Y111.634 E7.76926
G1 X99.907 Y111.593 E7.77171
G1 X99.866 Y111.436 E7.77416
G1 X99.866 Y103.523 E7.89384
G1 X99.071 Y103.255 E7.90652
G1 X97.667 Y102.475 E7.93082
G1 X97.043 Y101.818 E7.94453
G1 X96.550 Y100.968 E7.95938
G1 X96.202 Y100.134 E7.97305
G1 X93.064 Y100.134 E8.02052
G1 X92.907 Y100.093 E8.02297
G1 X92.866 Y99.936 E8.02542
G1 X92.866 Y97.398 E8.06380
G1 X96.438 Y94.340 E8.13494
G1 X94.283 Y91.822 E8.18508
G1 X98.323 Y88.375 E8.26541
G1 X99.936 Y88.366 E8.28981
G1 X100.093 Y88.407 E8.29226
G1 X100.134 Y88.564 E8.29471
G1 X100.134 Y95.301 E8.39661
G1 X100.921 Y95.435 E8.40868
G1 X102.568 Y96.131 E8.43573
G1 X103.720 Y97.382 E8.46145
G1 X104.277 Y99.085 E8.48855
G1 X104.350 Y99.866 E8.50041
G1 X106.936 Y99.866 E8.53953
G1 X107.093 Y99.907 E8.54198
G1 X107.134 Y100.064 E8.54443
G1 X107.134 Y102.628 E8.58320
G1 X103.644 Y105.932 E8.65591
G1 X102.649 Y105.958 F7800.000
G1 F3600
G1 X104.555 Y107.972 E8.69785
G1 X101.390 Y110.969 E8.76379
G1 X100.531 Y110.969 E8.77678
G1 X100.531 Y103.046 E8.89663
G1 X99.342 Y102.644 E8.91561
G1 X98.080 Y101.943 E8.93745
G1 X97.580 Y101.416 E8.94844
G1 X97.148 Y100.672 E8.96145
G1 X96.646 Y99.469 E8.98117
G1 X93.531 Y99.469 E9.02828
G1 X93.531 Y97.705 E9.05496
G1 X97.377 Y94.412 E9.13154
G1 X95.221 Y91.895 E9.18167
G1 X98.566 Y89.031 E9.24827
G1 X99.469 Y89.031 E9.26193
G1 X99.469 Y95.863 E9.36526
G1 X100.734 Y96.078 E9.38467
G1 X102.176 Y96.687 E9.40836
G1 X103.132 Y97.727 E9.42972
G1 X103.621 Y99.221 E9.45351
G1 X103.743 Y100.531 E9.47340
G1 X106.469 Y100.531 E9.51462
G1 X106.469 Y102.341 E9.54200
G1 X102.703 Y105.907 E9.62044
G1 X101.974 Y105.681 F7800.000
G1 F1200
G1 X100.938 Y106.717 E9.64344
G1 X100.938 Y107.694 E9.65876
G1 X102.449 Y106.183 E9.69229
G1 X102.924 Y106.684 E9.70313
G1 X100.938 Y108.670 E9.74720
G1 X100.938 Y109.647 E9.76252
G1 X103.399 Y107.186 E9.81713
G1 X103.873 Y107.687 E9.82797
G1 X103.353 Y108.208 E9.83951
G1 X101.720 Y105.935 F7800.000
G1 F1200
G1 X106.062 Y101.593 E9.93586
G1 X106.062 Y100.938 E9.94614
G1 X105.741 Y100.938 E9.95118
G1 X100.938 Y105.741 E10.05777
G1 X100.938 Y104.764 E10.07309
G1 X104.764 Y100.938 E10.15801
G1 X103.788 Y100.938 E10.17334
G1 X100.938 Y103.788 E10.23659
G1 X100.926 Y102.823 E10.25173
G1 X103.346 Y100.403 E10.30543
G1 X103.263 Y99.510 E10.31950
G1 X100.196 Y102.577 E10.38755
G1 X99.466 Y102.330 E10.39964
G1 X103.017 Y98.780 E10.47843
G1 X102.776 Y98.044 E10.49058
G1 X98.844 Y101.976 E10.57784
G1 X98.844 Y101.889 E10.57920
G1 X98.279 Y101.564 E10.58942
G1 X102.365 Y97.479 E10.68007
G1 X101.986 Y97.067 E10.68886
G1 X101.855 Y97.012 E10.69108
G1 X97.761 Y101.107 E10.78194
G1 X97.486 Y100.634 E10.79051
G1 X97.419 Y100.472 E10.79327
